public/comback.svg

<svg width="341" height="395" viewBox="0 0 341 395" fill="none" xmlns="http://www.w3.org/2000/svg">
<path d="M34.1761 10.8334L5.52798 3.19391C4.92478 3.03306 4.32328 3.45811 4.2735 4.0804L3.38398 15.1994C3.37417 15.322 3.38706 15.4454 3.42199 15.5633L7.31629 28.7065C7.35122 28.8244 7.36411 28.9478 7.3543 29.0703L4.37817 66.272C4.37217 66.347 4.37465 66.4225 4.38557 66.4969L9.85238 103.771C9.86352 103.847 9.86587 103.924 9.8594 104L4.36914 168.885C4.36914 173.052 4.96914 182.085 7.36914 184.885C9.72005 187.628 8.42482 191.874 7.43097 193.769C7.39008 193.847 7.35873 193.928 7.33818 194.014L4.41191 206.207C4.38363 206.325 4.377 206.446 4.39235 206.567L7.3584 229.801C7.36555 229.857 7.36794 229.913 7.36556 229.97L4.37524 300.74C4.3712 300.836 4.38095 300.932 4.40421 301.025L7.31376 312.663C7.35021 312.809 7.35333 312.961 7.32288 313.108L4.40607 327.206C4.38165 327.324 4.37877 327.446 4.39757 327.565L7.34954 346.261C7.36255 346.343 7.3652 346.427 7.35741 346.51L4.39061 378.156C4.37648 378.307 4.39676 378.459 4.44992 378.6L7.24819 386.062C7.32656 386.271 7.47261 386.448 7.66307 386.565L16.1291 391.738C16.2861 391.834 16.4665 391.885 16.6505 391.885H31.2409C31.326 391.885 31.4109 391.874 31.4933 391.853L42.745 388.917C42.8274 388.896 42.9123 388.885 42.9974 388.885H60.3691H73.715C73.8172 388.885 73.9187 388.901 74.0161 388.931L83.0876 391.796C83.2714 391.854 83.468 391.858 83.6539 391.807L103.162 386.442C103.299 386.404 103.442 386.396 103.581 386.418L119.292 388.873C119.343 388.881 119.395 388.885 119.447 388.885H137.869H170.215C170.317 388.885 170.419 388.901 170.516 388.931L179.6 391.8C179.776 391.855 179.964 391.861 180.143 391.816L191.644 388.941C191.792 388.904 191.947 388.902 192.096 388.934L205.751 391.86C205.83 391.876 205.91 391.884 205.99 391.881L309.726 388.889C309.821 388.886 309.916 388.897 310.007 388.921L321.051 391.802C321.258 391.856 321.476 391.842 321.675 391.763L328.69 388.956C328.808 388.909 328.935 388.885 329.062 388.885H333.729C334.119 388.885 334.474 388.658 334.637 388.304L337.212 382.725C337.313 382.506 337.332 382.257 337.264 382.025L331.436 362.115C331.392 361.964 331.384 361.804 331.413 361.65L337.331 330.09C337.356 329.955 337.354 329.819 337.323 329.685C336.3 325.267 334.051 316.036 332.869 312.885C331.7 309.766 334.235 303.861 335.753 301.094C335.829 300.955 335.872 300.802 335.879 300.644L337.363 262.535C337.367 262.435 337.356 262.336 337.331 262.24L332.898 245.494C332.879 245.422 332.868 245.347 332.865 245.272L331.377 200.627C331.372 200.468 331.405 200.31 331.473 200.166L335.773 191.088C335.836 190.954 335.869 190.808 335.869 190.66V156.499C335.869 156.423 335.861 156.349 335.844 156.276C335.336 154.066 334.369 149.565 334.369 148.385C334.369 147.26 336.127 143.703 337.171 141.752C337.297 141.517 337.326 141.241 337.249 140.985L332.919 126.553C332.886 126.442 332.872 126.326 332.879 126.21L337.364 44.9748C337.367 44.915 337.365 44.855 337.358 44.7956L334.395 21.0942C334.378 20.9562 334.39 20.8161 334.43 20.6828L337.031 12.0117C337.208 11.4211 336.814 10.8125 336.203 10.7327L326.013 9.40368C325.918 9.39122 325.824 9.36502 325.736 9.32589L321.886 7.61446C321.565 7.472 321.193 7.50789 320.906 7.70904L316.874 10.5315C316.564 10.7481 316.159 10.7718 315.826 10.5927L310.164 7.54374C309.973 7.44065 309.753 7.40277 309.538 7.43583L296.945 9.37326C296.894 9.381 296.844 9.38489 296.793 9.38489H274.369H265.869L252.451 10.8757C252.397 10.8818 252.342 10.8834 252.286 10.8804L224.869 9.38489C218.202 8.71822 204.169 7.38489 201.369 7.38489C198.584 7.38489 179.733 9.69401 170.513 10.8666C170.415 10.879 170.32 10.8764 170.222 10.8598L150.002 7.40764C149.914 7.39254 149.824 7.38941 149.735 7.39834L115.018 10.87C114.919 10.8799 114.82 10.875 114.722 10.8555L97.5371 7.41848C97.4259 7.39625 97.3118 7.39308 97.1996 7.40911L83.4828 9.36865C83.4073 9.37944 83.3308 9.38155 83.2548 9.37494L60.4794 7.39448C60.4061 7.3881 60.3323 7.38984 60.2594 7.39966L34.5672 10.8582C34.4364 10.8758 34.3035 10.8674 34.1761 10.8334Z" fill="#48BBFE" fill-opacity="0.41"/>
<path d="M303.286 8.48496L331.796 0.346653C332.396 0.175297 333.005 0.589787 333.066 1.21111L334.149 12.3129C334.161 12.4353 334.151 12.5589 334.118 12.6774L330.453 25.8866C330.42 26.0051 330.41 26.1286 330.422 26.251L334.047 63.3951C334.054 63.47 334.053 63.5454 334.043 63.6201L329.228 100.983C329.218 101.06 329.217 101.137 329.225 101.213L335.846 165.992C335.919 170.158 335.477 179.201 333.126 182.042C330.823 184.825 332.193 189.048 333.219 190.926C333.262 191.003 333.294 191.084 333.316 191.169L336.455 203.309C336.485 203.426 336.494 203.548 336.481 203.669L333.921 226.951C333.915 227.007 333.913 227.064 333.917 227.12L338.142 297.828C338.147 297.923 338.139 298.02 338.118 298.113L335.412 309.8C335.378 309.947 335.377 310.099 335.41 310.245L338.573 324.29C338.599 324.408 338.604 324.529 338.587 324.649L335.962 343.393C335.951 343.476 335.949 343.559 335.959 343.642L339.477 375.232C339.494 375.382 339.476 375.534 339.426 375.677L336.758 383.187C336.683 383.397 336.54 383.576 336.352 383.696L327.978 389.017C327.822 389.115 327.643 389.169 327.459 389.173L312.871 389.427C312.786 389.429 312.701 389.419 312.618 389.399L301.317 386.661C301.234 386.641 301.149 386.631 301.064 386.633L283.695 386.936L270.351 387.169C270.249 387.171 270.147 387.188 270.05 387.221L261.03 390.243C260.848 390.304 260.651 390.311 260.464 390.264L240.866 385.24C240.728 385.205 240.585 385.199 240.446 385.224L224.78 387.952C224.729 387.961 224.678 387.966 224.626 387.967L206.206 388.289L173.865 388.853C173.763 388.855 173.662 388.872 173.565 388.905L164.533 391.931C164.358 391.99 164.17 391.999 163.99 391.957L152.441 389.283C152.292 389.249 152.137 389.249 151.989 389.284L138.386 392.448C138.308 392.466 138.229 392.474 138.149 392.473L34.3755 391.292C34.2807 391.291 34.1862 391.303 34.0948 391.329L23.1035 394.402C22.8977 394.46 22.6788 394.45 22.4791 394.374L15.4154 391.69C15.2965 391.645 15.1701 391.623 15.0429 391.625L10.376 391.707C9.986 391.714 9.62764 391.493 9.45803 391.142L6.78623 385.609C6.68116 385.391 6.65842 385.143 6.72226 384.91L12.2013 364.901C12.2429 364.749 12.2481 364.589 12.2164 364.435L5.74911 332.984C5.72136 332.849 5.72101 332.713 5.74976 332.579C6.69556 328.143 8.78297 318.875 9.90964 315.703C11.0246 312.565 8.38685 306.705 6.82071 303.965C6.74203 303.827 6.69603 303.675 6.68707 303.517L4.53743 265.439C4.53182 265.34 4.54107 265.241 4.56481 265.144L8.70456 248.324C8.72254 248.251 8.7322 248.176 8.73342 248.1L9.44216 203.437C9.44469 203.277 9.40913 203.12 9.33842 202.977L4.88069 193.976C4.81498 193.843 4.77957 193.698 4.77698 193.549L4.18079 159.393C4.17947 159.318 4.18639 159.244 4.20204 159.17C4.671 156.952 5.55955 152.435 5.53895 151.255C5.51932 150.13 3.69951 146.604 2.62195 144.672C2.49186 144.438 2.45791 144.163 2.53018 143.906L6.60741 129.4C6.63873 129.289 6.65047 129.173 6.64208 129.057L0.739627 47.9125C0.735257 47.8527 0.736286 47.7928 0.742694 47.7332L3.29127 23.9838C3.3061 23.8454 3.29191 23.7056 3.24964 23.573L0.49736 14.9486C0.309895 14.3612 0.6935 13.7458 1.3034 13.6554L11.4681 12.1487C11.5634 12.1346 11.6561 12.1068 11.7435 12.0661L15.5637 10.2877C15.8817 10.1397 16.254 10.1691 16.5448 10.3652L20.6255 13.1168C20.9388 13.3281 21.3444 13.3447 21.674 13.1598L27.2822 10.0124C27.4718 9.90604 27.691 9.86433 27.9064 9.89364L40.5316 11.611C40.582 11.6178 40.6329 11.6208 40.6838 11.62L63.1039 11.2286L71.6026 11.0803L85.0444 12.3367C85.0992 12.3419 85.1544 12.3424 85.2093 12.3385L112.596 10.3647C119.25 9.5818 133.258 8.00376 136.058 7.95489C138.843 7.90628 157.731 9.88606 166.97 10.8975C167.068 10.9083 167.164 10.904 167.261 10.8857L187.417 7.08117C187.505 7.06453 187.595 7.05983 187.685 7.0672L222.457 9.93244C222.556 9.94058 222.655 9.93397 222.752 9.91282L239.875 6.17636C239.985 6.15219 240.1 6.14703 240.212 6.1611L253.961 7.88095C254.037 7.89042 254.113 7.8912 254.189 7.88326L276.926 5.50562C277 5.49796 277.073 5.49841 277.146 5.50696L302.895 8.51661C303.026 8.53192 303.159 8.52117 303.286 8.48496Z" fill="url(#paint0_linear_1299_10232)" fill-opacity="0.41"/>
<path d="M41.8842 386.11L14.1455 394.066C13.5448 394.238 12.935 393.823 12.8745 393.201L11.8209 382.36C11.8091 382.238 11.8197 382.115 11.8522 381.997L15.4195 369.069C15.452 368.951 15.4626 368.828 15.4508 368.706L11.9164 332.339C11.9092 332.265 11.9103 332.19 11.9199 332.115L16.6077 295.533C16.6174 295.458 16.6184 295.381 16.6106 295.305L10.1539 231.875C10.0827 227.795 10.5128 218.941 12.8028 216.159C15.0451 213.435 13.7127 209.302 12.7123 207.462C12.6704 207.385 12.6379 207.304 12.616 207.22L9.55847 195.337C9.52842 195.22 9.51974 195.099 9.53284 194.979L12.0246 172.186C12.0307 172.13 12.0321 172.074 12.0287 172.018L7.90663 102.784C7.90096 102.689 7.90895 102.593 7.93037 102.5L10.5643 91.0621C10.5979 90.9164 10.5984 90.765 10.5656 90.619L7.48488 76.8725C7.45865 76.7555 7.45369 76.6347 7.47023 76.5159L10.0256 58.1664C10.037 58.0842 10.0382 58.0008 10.0291 57.9183L6.57366 26.7641L6.57366 16.7352C6.57366 16.0398 7.26586 15.5567 7.91859 15.7966L11.4059 17.0781C11.6979 17.1854 12.0232 17.1507 12.2861 16.9842L17.7951 13.4931C17.9502 13.3948 18.1294 13.3412 18.3129 13.338L32.515 13.0901C32.6006 13.0886 32.686 13.0981 32.7691 13.1183L43.7721 15.7989C43.8553 15.8192 43.9407 15.8287 44.0263 15.8272L60.9443 15.5319L73.9399 15.305C74.0425 15.3032 74.1443 15.2856 74.2415 15.2529L83.0162 12.2983C83.1998 12.2365 83.3973 12.2294 83.5849 12.2777L102.665 17.1945C102.802 17.23 102.946 17.2357 103.086 17.2111L118.34 14.5421C118.391 14.5332 118.443 14.5282 118.495 14.5273L136.438 14.2141L167.941 13.6642C168.044 13.6624 168.146 13.6448 168.243 13.6121L177.03 10.6535C177.206 10.5942 177.395 10.5851 177.576 10.6272L188.812 13.243C188.962 13.2779 189.117 13.2778 189.267 13.2429L202.508 10.1483C202.586 10.13 202.666 10.1212 202.747 10.1222L303.841 11.2879C303.936 11.289 304.031 11.2765 304.123 11.2507L314.817 8.24633C315.024 8.18824 315.244 8.19826 315.444 8.27488L322.312 10.8975C322.431 10.9431 322.558 10.9654 322.686 10.9631L327.209 10.8842C327.6 10.8774 327.958 11.0987 328.128 11.4509L330.722 16.8497C330.826 17.0665 330.849 17.3135 330.785 17.5456L325.452 37.1284C325.41 37.2796 325.405 37.4383 325.437 37.5917L331.739 68.3821C331.766 68.5165 331.767 68.6515 331.738 68.7858C330.817 73.13 328.785 82.2013 327.688 85.3062C326.602 88.3781 329.17 94.1126 330.696 96.7968C330.774 96.9341 330.82 97.0859 330.828 97.2436L332.926 134.523C332.931 134.621 332.922 134.72 332.899 134.817L328.868 151.283C328.85 151.355 328.841 151.43 328.839 151.505L328.153 195.233C328.15 195.392 328.186 195.549 328.256 195.691L332.596 204.498C332.661 204.631 332.696 204.776 332.699 204.923L333.282 238.363C333.284 238.438 333.277 238.512 333.261 238.586C332.805 240.758 331.94 245.179 331.96 246.334C331.979 247.435 333.749 250.881 334.799 252.774C334.928 253.007 334.962 253.28 334.89 253.537L330.922 267.731C330.891 267.842 330.879 267.958 330.887 268.073L336.645 347.525C336.649 347.585 336.648 347.645 336.642 347.704L334.161 370.954C334.146 371.092 334.16 371.231 334.202 371.363L336.877 379.783C337.063 380.37 336.68 380.985 336.071 381.075L326.2 382.545C326.104 382.559 326.011 382.587 325.923 382.628L322.221 384.36C321.902 384.51 321.528 384.48 321.236 384.282L317.289 381.607C316.974 381.394 316.567 381.377 316.236 381.564L310.797 384.631C310.607 384.739 310.387 384.781 310.17 384.751L297.882 383.07C297.832 383.063 297.781 383.06 297.729 383.061L275.889 383.442L267.609 383.587L254.516 382.355C254.461 382.35 254.405 382.35 254.35 382.354L227.67 384.284C221.188 385.05 207.541 386.594 204.813 386.641C202.1 386.689 183.704 384.749 174.701 383.758C174.602 383.747 174.506 383.751 174.409 383.77L154.78 387.492C154.691 387.509 154.601 387.513 154.511 387.506L120.643 384.698C120.543 384.69 120.443 384.696 120.346 384.718L103.674 388.373C103.563 388.397 103.448 388.403 103.335 388.388L89.9487 386.704C89.8726 386.695 89.7957 386.694 89.7194 386.702L67.5745 389.027C67.501 389.035 67.4268 389.035 67.3533 389.026L42.2767 386.078C42.145 386.062 42.0116 386.073 41.8842 386.11Z" fill="url(#paint1_linear_1299_10232)" fill-opacity="0.41"/>
<defs>
<linearGradient id="paint0_linear_1299_10232" x1="166.975" y1="2.91455" x2="173.764" y2="391.855" gradientUnits="userSpaceOnUse">
<stop stop-color="#48BBFE"/>
<stop offset="1" stop-color="#2B7098"/>
</linearGradient>
<linearGradient id="paint1_linear_1299_10232" x1="168.045" y1="10.7244" x2="174.693" y2="391.574" gradientUnits="userSpaceOnUse">
<stop stop-color="#4882FE"/>
<stop offset="1" stop-color="#4468E2"/>
</linearGradient>
</defs>
</svg>

<svg xmlns="http://www.w3.org/2000/svg" width="341" height="395" fill="none"><path fill="#48BBFE" fill-opacity=".41" d="M34.176 10.833 5.528 3.193a1 1 0 0 0-1.254.887l-.89 11.12a1 1 0 0 0 .038.363l3.894 13.143a1 1 0 0 1 .038.364L4.378 66.272a1 1 0 0 0 .008.225l5.466 37.274a1 1 0 0 1 .007.229l-5.49 64.885c0 4.167.6 13.2 3 16 2.351 2.743 1.056 6.989.062 8.884a1 1 0 0 0-.093.245l-2.926 12.193a1 1 0 0 0-.02.36l2.966 23.234q.011.084.008.169l-2.99 70.77q-.007.145.028.285l2.91 11.638a1 1 0 0 1 .009.445l-2.917 14.098q-.036.179-.008.359l2.952 18.696a1 1 0 0 1 .007.249l-2.966 31.646a1 1 0 0 0 .059.444l2.798 7.462c.079.209.225.386.415.503l8.466 5.173a1 1 0 0 0 .521.147h14.59q.129 0 .253-.032l11.252-2.936q.124-.032.252-.032h30.718q.154 0 .301.046l9.072 2.865c.183.058.38.062.566.011l19.508-5.365a1 1 0 0 1 .419-.024l15.711 2.455q.077.012.155.012h50.768q.154 0 .301.046l9.084 2.869c.176.055.364.061.543.016l11.501-2.875a1 1 0 0 1 .452-.007l13.655 2.926q.119.025.239.021l103.736-2.992a1 1 0 0 1 .281.032l11.044 2.881c.207.054.425.04.624-.039l7.015-2.807c.118-.047.245-.071.372-.071h4.667a1 1 0 0 0 .908-.581l2.575-5.579a1 1 0 0 0 .052-.7l-5.828-19.91a1 1 0 0 1-.023-.465l5.918-31.56a1 1 0 0 0-.008-.405c-1.023-4.418-3.272-13.649-4.454-16.8-1.169-3.119 1.366-9.024 2.884-11.791a1 1 0 0 0 .126-.45l1.484-38.109q.006-.15-.032-.295l-4.433-16.746a1 1 0 0 1-.033-.222l-1.488-44.645a1 1 0 0 1 .096-.461l4.3-9.078c.063-.134.096-.28.096-.428v-34.161a1 1 0 0 0-.025-.223c-.508-2.21-1.475-6.711-1.475-7.891 0-1.125 1.758-4.682 2.802-6.633a1 1 0 0 0 .078-.767l-4.33-14.432a1 1 0 0 1-.04-.343l4.485-81.235q.004-.09-.006-.18l-2.963-23.7a1 1 0 0 1 .035-.412l2.601-8.671a1 1 0 0 0-.828-1.28l-10.19-1.328a1 1 0 0 1-.277-.078l-3.85-1.712a1 1 0 0 0-.98.095l-4.032 2.823c-.31.216-.715.24-1.048.06l-5.662-3.048a1 1 0 0 0-.626-.108l-12.593 1.937a1 1 0 0 1-.152.012h-30.924l-13.418 1.49a1 1 0 0 1-.165.005l-27.417-1.495c-6.667-.667-20.7-2-23.5-2-2.785 0-21.636 2.309-30.856 3.482a1 1 0 0 1-.291-.007l-20.22-3.452a1 1 0 0 0-.267-.01l-34.717 3.472a1 1 0 0 1-.296-.014L97.537 7.417a1 1 0 0 0-.337-.009L83.483 9.37a1 1 0 0 1-.228.006l-22.776-1.98a1 1 0 0 0-.22.005l-25.692 3.458a1 1 0 0 1-.39-.025"/><path fill="url(#a)" fill-opacity=".41" d="m303.286 8.485 28.51-8.138a1 1 0 0 1 1.27.864l1.083 11.102a1 1 0 0 1-.031.364l-3.665 13.21a1 1 0 0 0-.031.364l3.625 37.144a1 1 0 0 1-.004.225l-4.815 37.363a1 1 0 0 0-.003.23l6.621 64.779c.073 4.166-.369 13.209-2.72 16.05-2.303 2.783-.933 7.006.093 8.884q.064.115.097.243l3.139 12.14q.045.177.026.36l-2.56 23.282a1 1 0 0 0-.004.169l4.225 70.708a1 1 0 0 1-.024.285l-2.706 11.687a1 1 0 0 0-.002.445l3.163 14.045q.04.178.014.359l-2.625 18.744a1 1 0 0 0-.003.249l3.518 31.59c.017.15-.001.302-.051.445l-2.668 7.51c-.075.21-.218.389-.406.509l-8.374 5.321a1 1 0 0 1-.519.156l-14.588.254a1 1 0 0 1-.253-.028l-11.301-2.738a1 1 0 0 0-.253-.028l-17.369.303-13.344.233a1 1 0 0 0-.301.052l-9.02 3.022a1 1 0 0 1-.566.021l-19.598-5.024a1 1 0 0 0-.42-.016l-15.666 2.728a1 1 0 0 1-.154.015l-18.42.322-32.341.564a1 1 0 0 0-.3.052l-9.032 3.026a1 1 0 0 1-.543.026l-11.549-2.674a1 1 0 0 0-.452.001l-13.603 3.164a1 1 0 0 1-.237.025l-103.773-1.181a1 1 0 0 0-.281.037l-10.991 3.073a1 1 0 0 1-.625-.028l-7.064-2.684a1 1 0 0 0-.372-.065l-4.667.082a1 1 0 0 1-.918-.565l-2.672-5.533a1 1 0 0 1-.064-.699l5.48-20.009c.04-.152.046-.312.014-.466L5.75 332.984a1 1 0 0 1 0-.405c.947-4.436 3.034-13.704 4.16-16.876 1.116-3.138-1.522-8.998-3.088-11.738a1 1 0 0 1-.134-.448l-2.15-38.078a1 1 0 0 1 .028-.295l4.14-16.82q.027-.11.028-.224l.71-44.663a1 1 0 0 0-.105-.46l-4.457-9.001a1 1 0 0 1-.104-.427l-.596-34.156a1 1 0 0 1 .021-.223c.469-2.218 1.358-6.735 1.337-7.915-.02-1.125-1.84-4.651-2.917-6.583a1 1 0 0 1-.092-.766L6.607 129.4a1 1 0 0 0 .035-.343L.74 47.913a1 1 0 0 1 .003-.18l2.548-23.75a1 1 0 0 0-.041-.41L.497 14.949a1 1 0 0 1 .806-1.294l10.165-1.506a1 1 0 0 0 .275-.083l3.82-1.778a1 1 0 0 1 .982.077l4.08 2.752a1 1 0 0 0 1.049.043l5.608-3.148a1 1 0 0 1 .624-.118l12.626 1.717q.075.01.152.009l22.42-.391 8.499-.149 13.441 1.257q.082.007.165.002l27.387-1.974c6.654-.783 20.662-2.361 23.462-2.41 2.785-.049 21.673 1.931 30.912 2.943q.146.015.291-.012l20.156-3.805q.132-.024.268-.014l34.772 2.865a1 1 0 0 0 .295-.02l17.123-3.736a1 1 0 0 1 .337-.015l13.749 1.72q.114.014.228.002l22.737-2.377a1 1 0 0 1 .22.001l25.749 3.01c.131.015.264.004.391-.032"/><path fill="url(#b)" fill-opacity=".41" d="m41.884 386.11-27.739 7.956a1 1 0 0 1-1.27-.865L11.82 382.36a1 1 0 0 1 .031-.363l3.567-12.928q.05-.178.032-.363l-3.535-36.367a1 1 0 0 1 .004-.224l4.688-36.582a1 1 0 0 0 .003-.228l-6.457-63.43c-.071-4.08.359-12.934 2.649-15.716 2.242-2.724.91-6.857-.09-8.697a1 1 0 0 1-.097-.242l-3.058-11.883a1 1 0 0 1-.025-.358l2.492-22.793a1 1 0 0 0 .004-.168l-4.122-69.234a1 1 0 0 1 .023-.284l2.634-11.438a1 1 0 0 0 .002-.443L7.485 76.873a1 1 0 0 1-.015-.357l2.556-18.35q.017-.123.003-.248L6.574 26.764V16.735a1 1 0 0 1 1.345-.938l3.487 1.281a1 1 0 0 0 .88-.094l5.51-3.49a1 1 0 0 1 .517-.156l14.202-.248q.13-.002.254.028l11.003 2.68q.125.03.254.03l16.918-.296 12.996-.227q.155-.003.302-.052l8.774-2.955a1 1 0 0 1 .569-.02l19.08 4.917a1 1 0 0 0 .421.016l15.254-2.669q.077-.013.155-.015l17.943-.313 31.503-.55a1 1 0 0 0 .302-.052l8.787-2.959a1 1 0 0 1 .546-.026l11.236 2.616c.15.035.305.035.455 0l13.241-3.095a1 1 0 0 1 .239-.026l101.094 1.166q.143.002.282-.037l10.694-3.005a1 1 0 0 1 .627.029l6.868 2.623a1 1 0 0 0 .374.065l4.523-.079a1 1 0 0 1 .919.567l2.594 5.399a1 1 0 0 1 .063.696l-5.333 19.582a1 1 0 0 0-.015.464l6.302 30.79a1 1 0 0 1-.001.404c-.921 4.344-2.953 13.415-4.05 16.52-1.086 3.072 1.482 8.807 3.008 11.49q.118.209.132.448l2.098 37.279q.007.148-.027.294l-4.031 16.466a1 1 0 0 0-.029.222l-.686 43.728a1 1 0 0 0 .103.458l4.34 8.807c.065.133.1.278.103.425l.583 33.44a1 1 0 0 1-.021.223c-.456 2.172-1.321 6.593-1.301 7.748.019 1.101 1.789 4.547 2.839 6.44.129.233.163.506.091.763l-3.968 14.194a1 1 0 0 0-.035.342l5.758 79.452q.006.09-.003.179l-2.481 23.25a1 1 0 0 0 .041.409l2.675 8.42a1 1 0 0 1-.806 1.292l-9.871 1.47a1 1 0 0 0-.277.083l-3.702 1.732a1 1 0 0 1-.985-.078l-3.947-2.675a1 1 0 0 0-1.053-.043l-5.439 3.067a1 1 0 0 1-.627.12l-12.288-1.681a1 1 0 0 0-.153-.009l-21.84.381-8.28.145-13.093-1.232a1 1 0 0 0-.166-.001l-26.68 1.93c-6.482.766-20.129 2.31-22.857 2.357-2.713.048-21.109-1.892-30.112-2.883a1 1 0 0 0-.292.012l-19.629 3.722a1 1 0 0 1-.269.014l-33.868-2.808a1 1 0 0 0-.297.02l-16.672 3.655a1 1 0 0 1-.339.015l-13.386-1.684a1 1 0 0 0-.23-.002l-22.144 2.325a1 1 0 0 1-.222-.001l-25.076-2.948a1 1 0 0 0-.393.032"/><defs><linearGradient id="a" x1="166.975" x2="173.764" y1="2.915" y2="391.855" gradientUnits="userSpaceOnUse"><stop stop-color="#48BBFE"/><stop offset="1" stop-color="#2B7098"/></linearGradient><linearGradient id="b" x1="168.045" x2="174.693" y1="10.724" y2="391.574" gradientUnits="userSpaceOnUse"><stop stop-color="#4882FE"/><stop offset="1" stop-color="#4468E2"/></linearGradient></defs></svg>
